file/nickelodeon.svg

<svg clip-rule="evenodd" fill-rule="evenodd" stroke-linejoin="round" stroke-miterlimit="1.41421" viewBox="0 0 560 400" xmlns="http://www.w3.org/2000/svg"><g fill="#f57c14" fill-rule="nonzero" transform="matrix(1.33942 0 0 1.33942 12.1161 11.3044)"><path d="m383.352 132.005h-.802v2.242h-.486v-2.242h-.799v-.414h2.087zm.652-.454h-.08v2.696h.483v-1.673l.832.995h.095l.825-.995v1.673h.49v-2.696h-.079l-1.281 1.438z"/><path d="m31.552 131.424c5.048 0 9.349 1.778 12.901 5.332 3.555 3.508 5.331 7.799 5.331 12.868v16.74h-13.818v-16.468c0-1.947-.432-3.611-1.291-4.991-.861-1.381-1.902-2.072-3.124-2.072-1.201 0-2.229.691-3.09 2.072-.86 1.38-1.29 3.044-1.29 4.991v16.468h-13.819v-16.74c0-5.069 1.777-9.359 5.331-12.868 3.531-3.554 7.82-5.332 12.869-5.332z"/><path d="m63.089 128.674c-1.473 1.449-2.23 2.524-2.275 3.226v.068c0 .725.646 1.721 1.937 2.989l1.527 1.528c1.358 1.381 2.038 3.034 2.038 4.958v24.922h-13.957v-24.924c0-1.947.68-3.6 2.038-4.957l1.563-1.528c1.267-1.268 1.9-2.276 1.9-3.023v-.068c-.067-.679-.826-1.743-2.274-3.191l-1.664-1.699c-1.518-1.494-2.275-3.304-2.275-5.433 0-2.127.758-3.927 2.275-5.399 1.471-1.516 3.271-2.275 5.397-2.275 2.15 0 3.961.747 5.434 2.241 1.516 1.494 2.274 3.305 2.274 5.433 0 2.151-.759 3.961-2.274 5.433z"/><path d="m89.418 155.496c.61-1.154 1.006-2.512 1.188-4.074h13.785c-.385 4.369-2.128 8.08-5.229 11.138v.034c-3.53 3.555-7.787 5.33-12.767 5.33h-.17c-5.003 0-9.271-1.775-12.801-5.33v-.035c-3.555-3.508-5.332-7.766-5.332-12.767v-.171c0-5.002 1.776-9.258 5.332-12.766 3.53-3.554 7.819-5.331 12.869-5.331 5.024 0 9.313 1.777 12.868 5.331 3.102 3.079 4.844 6.791 5.229 11.137h-13.785c-.182-1.563-.577-2.92-1.188-4.074-.884-1.585-1.926-2.377-3.124-2.377-1.2 0-2.23.792-3.091 2.377-.86 1.607-1.291 3.542-1.291 5.806 0 2.241.431 4.165 1.291 5.772.86 1.584 1.891 2.389 3.091 2.412 1.2-.023 2.242-.828 3.125-2.412z"/><path d="m133.354 151.152 6.995 10.694c.589.884.883 1.677.883 2.377 0 .295-.046.565-.136.815-.317.882-.996 1.324-2.037 1.324h-11.409l-7.199-11.033v11h-13.818v-28.013c0-1.902.679-3.531 2.037-4.891 1.335-1.335 2.955-2.003 4.854-2.003 1.924 0 3.554.668 4.891 2.003 1.357 1.359 2.036 2.988 2.036 4.891v7.47l6.248-11.171c.974-1.653 2.389-2.716 4.245-3.193.611-.158 1.211-.237 1.8-.237 1.199 0 2.344.318 3.43.951 1.651.996 2.716 2.422 3.191 4.278.158.589.237 1.177.237 1.765 0 1.201-.328 2.343-.984 3.43z"/><path d="m157.371 131.524c4.958 0 9.235 1.812 12.836 5.433 2.444 2.445 3.904 5.625 4.38 9.542.112.95.169 1.834.169 2.648 0 .905-.068 1.721-.204 2.444h-21.425c.181 1.426.564 2.672 1.153 3.735.86 1.586 1.891 2.389 3.09 2.412 1.224 0 2.365-.715 3.431-2.141.521-.725.927-1.447 1.222-2.174h12.326c-.136 3.124-1.472 6.136-4.007 9.031-3.6 3.623-7.89 5.435-12.869 5.435-5.093 0-9.417-1.778-12.971-5.331-3.554-3.531-5.33-7.82-5.33-12.868 0-5.026 1.775-9.315 5.33-12.869 3.554-3.531 7.844-5.297 12.869-5.297zm4.008 14.94c-.25-1.155-.544-2.037-.884-2.649-.904-1.629-1.946-2.445-3.124-2.445-1.313 0-2.343.793-3.09 2.377-.385.815-.69 1.721-.917 2.716z"/><path d="m183.192 113.835c1.923 0 3.553.679 4.891 2.037 1.357 1.336 2.036 2.966 2.036 4.89v45.601h-13.818v-45.601c0-1.924.667-3.554 2.003-4.89 1.357-1.357 2.987-2.037 4.888-2.037z"/><path d="m223.109 136.787c3.555 3.554 5.331 7.844 5.331 12.869 0 5.047-1.776 9.35-5.331 12.903-.114.113-.329.316-.646.611-.271.248-.406.385-.406.406-3.419 2.875-7.347 4.313-11.783 4.313h-.17c-4.413 0-8.318-1.449-11.713-4.346-.228-.137-.589-.465-1.087-.985-3.553-3.554-5.331-7.854-5.331-12.902 0-5.025 1.777-9.314 5.331-12.869 3.554-3.576 7.854-5.364 12.902-5.364 5.05-.001 9.351 1.787 12.903 5.364zm-9.811 18.675c.882-1.607 1.323-3.542 1.323-5.807 0-2.24-.441-4.165-1.323-5.772-.861-1.607-1.892-2.411-3.09-2.411-1.2 0-2.241.804-3.124 2.411-.839 1.631-1.257 3.553-1.257 5.772 0 2.241.418 4.177 1.257 5.807.883 1.608 1.924 2.409 3.124 2.409 1.198.002 2.229-.801 3.09-2.409z"/><path d="m260.99 162.592c-3.53 3.554-7.82 5.331-12.869 5.331-5.048 0-9.337-1.777-12.866-5.331-3.556-3.553-5.331-7.844-5.331-12.869 0-5.023 1.775-9.314 5.331-12.868 3.53-3.554 7.818-5.331 12.866-5.331 1.493 0 2.954.182 4.381.543v-11.306c0-1.924.68-3.554 2.037-4.89 1.357-1.357 2.987-2.037 4.89-2.037 1.901 0 3.531.679 4.89 2.037 1.335 1.336 2.014 2.955 2.037 4.856v28.996c-.002 5.027-1.79 9.316-5.366 12.869zm-12.869-4.684c1.199 0 2.229-.804 3.091-2.412.859-1.584 1.29-3.521 1.29-5.806 0-2.264-.431-4.188-1.29-5.772-.86-1.607-1.892-2.411-3.091-2.411-1.222 0-2.252.804-3.089 2.411-.86 1.585-1.291 3.508-1.291 5.772 0 2.263.431 4.198 1.291 5.806.837 1.608 1.867 2.412 3.089 2.412z"/><path d="m286.135 131.524c4.958 0 9.236 1.812 12.835 5.433 2.445 2.445 3.904 5.625 4.38 9.542.113.95.17 1.834.17 2.648 0 .905-.067 1.721-.203 2.444h-21.426c.181 1.426.564 2.672 1.154 3.735.859 1.586 1.891 2.389 3.09 2.412 1.223 0 2.365-.715 3.43-2.141.521-.725.928-1.447 1.222-2.174h12.326c-.136 3.124-1.473 6.136-4.008 9.031-3.598 3.623-7.889 5.435-12.869 5.435-5.092 0-9.416-1.778-12.97-5.331-3.555-3.531-5.331-7.82-5.331-12.868 0-5.026 1.776-9.315 5.331-12.869 3.552-3.531 7.841-5.297 12.869-5.297zm4.007 14.94c-.249-1.155-.544-2.037-.883-2.649-.906-1.629-1.947-2.445-3.124-2.445-1.313 0-2.342.793-3.09 2.377-.386.815-.69 1.721-.917 2.716z"/><path d="m336.381 136.787c3.554 3.554 5.331 7.844 5.331 12.869 0 5.047-1.777 9.35-5.331 12.903-.114.113-.328.316-.646.611-.272.248-.408.385-.408.406-3.417 2.875-7.347 4.313-11.78 4.313h-.17c-4.414 0-8.318-1.449-11.716-4.346-.227-.137-.589-.465-1.087-.985-3.554-3.554-5.331-7.854-5.331-12.902 0-5.025 1.777-9.314 5.331-12.869 3.554-3.576 7.855-5.364 12.903-5.364 5.047-.001 9.348 1.787 12.904 5.364zm-9.815 18.675c.884-1.607 1.324-3.542 1.324-5.807 0-2.24-.44-4.165-1.324-5.772-.859-1.607-1.89-2.411-3.089-2.411-1.2 0-2.241.804-3.124 2.411-.837 1.631-1.256 3.553-1.256 5.772 0 2.241.419 4.177 1.256 5.807.883 1.608 1.924 2.409 3.124 2.409 1.201.002 2.23-.801 3.089-2.409z"/><path d="m361.526 131.424c5.047 0 9.349 1.778 12.902 5.332 3.554 3.508 5.331 7.799 5.331 12.868v16.74h-13.82v-16.468c0-1.947-.43-3.611-1.29-4.991-.861-1.381-1.901-2.072-3.123-2.072-1.201 0-2.229.691-3.09 2.072-.861 1.38-1.291 3.044-1.291 4.991v16.468h-13.819v-16.74c0-5.069 1.777-9.36 5.331-12.868 3.531-3.554 7.821-5.332 12.869-5.332z"/></g></svg>

<?xml version="1.0" encoding="UTF-8" standalone="no"?>
<!DOCTYPE svg PUBLIC "-//W3C//DTD SVG 1.1//EN" "http://www.w3.org/Graphics/SVG/1.1/DTD/svg11.dtd">
<svg width="100%" height="100%" viewBox="0 0 560 400" version="1.1" xmlns="http://www.w3.org/2000/svg" xmlns:xlink="http://www.w3.org/1999/xlink" xml:space="preserve" xmlns:serif="http://www.serif.com/" style="fill-rule:evenodd;clip-rule:evenodd;stroke-linejoin:round;stroke-miterlimit:1.41421;">
    <g transform="matrix(1.33942,0,0,1.33942,12.1161,11.3044)">
        <path d="M383.352,132.005L382.55,132.005L382.55,134.247L382.064,134.247L382.064,132.005L381.265,132.005L381.265,131.591L383.352,131.591L383.352,132.005ZM384.004,131.551L383.924,131.551L383.924,134.247L384.407,134.247L384.407,132.574L385.239,133.569L385.334,133.569L386.159,132.574L386.159,134.247L386.649,134.247L386.649,131.551L386.57,131.551L385.289,132.989L384.004,131.551Z" style="fill:rgb(245,124,20);fill-rule:nonzero;"/>
        <g>
            <path d="M31.552,131.424C36.6,131.424 40.901,133.202 44.453,136.756C48.008,140.264 49.784,144.555 49.784,149.624L49.784,166.364L35.966,166.364L35.966,149.896C35.966,147.949 35.534,146.285 34.675,144.905C33.814,143.524 32.773,142.833 31.551,142.833C30.35,142.833 29.322,143.524 28.461,144.905C27.601,146.285 27.171,147.949 27.171,149.896L27.171,166.364L13.352,166.364L13.352,149.624C13.352,144.555 15.129,140.265 18.683,136.756C22.214,133.202 26.503,131.424 31.552,131.424Z" style="fill:rgb(245,124,20);fill-rule:nonzero;"/>
            <path d="M63.089,128.674C61.616,130.123 60.859,131.198 60.814,131.9L60.814,131.968C60.814,132.693 61.46,133.689 62.751,134.957L64.278,136.485C65.636,137.866 66.316,139.519 66.316,141.443L66.316,166.365L52.359,166.365L52.359,141.441C52.359,139.494 53.039,137.841 54.397,136.484L55.96,134.956C57.227,133.688 57.86,132.68 57.86,131.933L57.86,131.865C57.793,131.186 57.034,130.122 55.586,128.674L53.922,126.975C52.404,125.481 51.647,123.671 51.647,121.542C51.647,119.415 52.405,117.615 53.922,116.143C55.393,114.627 57.193,113.868 59.319,113.868C61.469,113.868 63.28,114.615 64.753,116.109C66.269,117.603 67.027,119.414 67.027,121.542C67.027,123.693 66.268,125.503 64.753,126.975L63.089,128.674Z" style="fill:rgb(245,124,20);fill-rule:nonzero;"/>
            <path d="M89.418,155.496C90.028,154.342 90.424,152.984 90.606,151.422L104.391,151.422C104.006,155.791 102.263,159.502 99.162,162.56L99.162,162.594C95.632,166.149 91.375,167.924 86.395,167.924L86.225,167.924C81.222,167.924 76.954,166.149 73.424,162.594L73.424,162.559C69.869,159.051 68.092,154.793 68.092,149.792L68.092,149.621C68.092,144.619 69.868,140.363 73.424,136.855C76.954,133.301 81.243,131.524 86.293,131.524C91.317,131.524 95.606,133.301 99.161,136.855C102.263,139.934 104.005,143.646 104.39,147.992L90.605,147.992C90.423,146.429 90.028,145.072 89.417,143.918C88.533,142.333 87.491,141.541 86.293,141.541C85.093,141.541 84.063,142.333 83.202,143.918C82.342,145.525 81.911,147.46 81.911,149.724C81.911,151.965 82.342,153.889 83.202,155.496C84.062,157.08 85.093,157.885 86.293,157.908C87.493,157.885 88.535,157.08 89.418,155.496Z" style="fill:rgb(245,124,20);fill-rule:nonzero;"/>
            <path d="M133.354,151.152L140.349,161.846C140.938,162.73 141.232,163.523 141.232,164.223C141.232,164.518 141.186,164.788 141.096,165.038C140.779,165.92 140.1,166.362 139.059,166.362L127.65,166.362L120.451,155.329L120.451,166.329L106.633,166.329L106.633,138.316C106.633,136.414 107.312,134.785 108.67,133.425C110.005,132.09 111.625,131.422 113.524,131.422C115.448,131.422 117.078,132.09 118.415,133.425C119.772,134.784 120.451,136.413 120.451,138.316L120.451,145.786L126.699,134.615C127.673,132.962 129.088,131.899 130.944,131.422C131.555,131.264 132.155,131.185 132.744,131.185C133.943,131.185 135.088,131.503 136.174,132.136C137.825,133.132 138.89,134.558 139.365,136.414C139.523,137.003 139.602,137.591 139.602,138.179C139.602,139.38 139.274,140.522 138.618,141.609L133.354,151.152Z" style="fill:rgb(245,124,20);fill-rule:nonzero;"/>
            <path d="M157.371,131.524C162.329,131.524 166.606,133.336 170.207,136.957C172.651,139.402 174.111,142.582 174.587,146.499C174.699,147.449 174.756,148.333 174.756,149.147C174.756,150.052 174.688,150.868 174.552,151.591L153.127,151.591C153.308,153.017 153.691,154.263 154.28,155.326C155.14,156.912 156.171,157.715 157.37,157.738C158.594,157.738 159.735,157.023 160.801,155.597C161.322,154.872 161.728,154.15 162.023,153.423L174.349,153.423C174.213,156.547 172.877,159.559 170.342,162.454C166.742,166.077 162.452,167.889 157.473,167.889C152.38,167.889 148.056,166.111 144.502,162.558C140.948,159.027 139.172,154.738 139.172,149.69C139.172,144.664 140.947,140.375 144.502,136.821C148.056,133.29 152.346,131.524 157.371,131.524ZM161.379,146.464C161.129,145.309 160.835,144.427 160.495,143.815C159.591,142.186 158.549,141.37 157.371,141.37C156.058,141.37 155.028,142.163 154.281,143.747C153.896,144.562 153.591,145.468 153.364,146.463L161.379,146.464Z" style="fill:rgb(245,124,20);fill-rule:nonzero;"/>
            <path d="M183.192,113.835C185.115,113.835 186.745,114.514 188.083,115.872C189.44,117.208 190.119,118.838 190.119,120.762L190.119,166.363L176.301,166.363L176.301,120.762C176.301,118.838 176.968,117.208 178.304,115.872C179.661,114.515 181.291,113.835 183.192,113.835Z" style="fill:rgb(245,124,20);fill-rule:nonzero;"/>
            <path d="M223.109,136.787C226.664,140.341 228.44,144.631 228.44,149.656C228.44,154.703 226.664,159.006 223.109,162.559C222.995,162.672 222.78,162.875 222.463,163.17C222.192,163.418 222.057,163.555 222.057,163.576C218.638,166.451 214.71,167.889 210.274,167.889L210.104,167.889C205.691,167.889 201.786,166.44 198.391,163.543C198.163,163.406 197.802,163.078 197.304,162.558C193.751,159.004 191.973,154.704 191.973,149.656C191.973,144.631 193.75,140.342 197.304,136.787C200.858,133.211 205.158,131.423 210.206,131.423C215.256,131.422 219.557,133.21 223.109,136.787ZM213.298,155.462C214.18,153.855 214.621,151.92 214.621,149.655C214.621,147.415 214.18,145.49 213.298,143.883C212.437,142.276 211.406,141.472 210.208,141.472C209.008,141.472 207.967,142.276 207.084,143.883C206.245,145.514 205.827,147.436 205.827,149.655C205.827,151.896 206.245,153.832 207.084,155.462C207.967,157.07 209.008,157.871 210.208,157.871C211.406,157.873 212.437,157.07 213.298,155.462Z" style="fill:rgb(245,124,20);fill-rule:nonzero;"/>
            <path d="M260.99,162.592C257.46,166.146 253.17,167.923 248.121,167.923C243.073,167.923 238.784,166.146 235.255,162.592C231.699,159.039 229.924,154.748 229.924,149.723C229.924,144.7 231.699,140.409 235.255,136.855C238.785,133.301 243.073,131.524 248.121,131.524C249.614,131.524 251.075,131.706 252.502,132.067L252.502,120.761C252.502,118.837 253.182,117.207 254.539,115.871C255.896,114.514 257.526,113.834 259.429,113.834C261.33,113.834 262.96,114.513 264.319,115.871C265.654,117.207 266.333,118.826 266.356,120.727L266.356,149.723C266.354,154.75 264.566,159.039 260.99,162.592ZM248.121,157.908C249.32,157.908 250.35,157.104 251.212,155.496C252.071,153.912 252.502,151.975 252.502,149.69C252.502,147.426 252.071,145.502 251.212,143.918C250.352,142.311 249.32,141.507 248.121,141.507C246.899,141.507 245.869,142.311 245.032,143.918C244.172,145.503 243.741,147.426 243.741,149.69C243.741,151.953 244.172,153.888 245.032,155.496C245.869,157.104 246.899,157.908 248.121,157.908Z" style="fill:rgb(245,124,20);fill-rule:nonzero;"/>
            <path d="M286.135,131.524C291.093,131.524 295.371,133.336 298.97,136.957C301.415,139.402 302.874,142.582 303.35,146.499C303.463,147.449 303.52,148.333 303.52,149.147C303.52,150.052 303.453,150.868 303.317,151.591L281.891,151.591C282.072,153.017 282.455,154.263 283.045,155.326C283.904,156.912 284.936,157.715 286.135,157.738C287.358,157.738 288.5,157.023 289.565,155.597C290.086,154.872 290.493,154.15 290.787,153.423L303.113,153.423C302.977,156.547 301.64,159.559 299.105,162.454C295.507,166.077 291.216,167.889 286.236,167.889C281.144,167.889 276.82,166.111 273.266,162.558C269.711,159.027 267.935,154.738 267.935,149.69C267.935,144.664 269.711,140.375 273.266,136.821C276.818,133.29 281.107,131.524 286.135,131.524ZM290.142,146.464C289.893,145.309 289.598,144.427 289.259,143.815C288.353,142.186 287.312,141.37 286.135,141.37C284.822,141.37 283.793,142.163 283.045,143.747C282.659,144.562 282.355,145.468 282.128,146.463L290.142,146.464Z" style="fill:rgb(245,124,20);fill-rule:nonzero;"/>
            <path d="M336.381,136.787C339.935,140.341 341.712,144.631 341.712,149.656C341.712,154.703 339.935,159.006 336.381,162.559C336.267,162.672 336.053,162.875 335.735,163.17C335.463,163.418 335.327,163.555 335.327,163.576C331.91,166.451 327.98,167.889 323.547,167.889L323.377,167.889C318.963,167.889 315.059,166.44 311.661,163.543C311.434,163.406 311.072,163.078 310.574,162.558C307.02,159.004 305.243,154.704 305.243,149.656C305.243,144.631 307.02,140.342 310.574,136.787C314.128,133.211 318.429,131.423 323.477,131.423C328.524,131.422 332.825,133.21 336.381,136.787ZM326.566,155.462C327.45,153.855 327.89,151.92 327.89,149.655C327.89,147.415 327.45,145.49 326.566,143.883C325.707,142.276 324.676,141.472 323.477,141.472C322.277,141.472 321.236,142.276 320.353,143.883C319.516,145.514 319.097,147.436 319.097,149.655C319.097,151.896 319.516,153.832 320.353,155.462C321.236,157.07 322.277,157.871 323.477,157.871C324.678,157.873 325.707,157.07 326.566,155.462Z" style="fill:rgb(245,124,20);fill-rule:nonzero;"/>
            <path d="M361.526,131.424C366.573,131.424 370.875,133.202 374.428,136.756C377.982,140.264 379.759,144.555 379.759,149.624L379.759,166.364L365.939,166.364L365.939,149.896C365.939,147.949 365.509,146.285 364.649,144.905C363.788,143.524 362.748,142.833 361.526,142.833C360.325,142.833 359.297,143.524 358.436,144.905C357.575,146.285 357.145,147.949 357.145,149.896L357.145,166.364L343.326,166.364L343.326,149.624C343.326,144.555 345.103,140.264 348.657,136.756C352.188,133.202 356.478,131.424 361.526,131.424Z" style="fill:rgb(245,124,20);fill-rule:nonzero;"/>
        </g>
    </g>
</svg>
